dist/images/svg/logo-desktop.svg

<svg width="559" height="84" viewBox="0 0 559 84" fill="none" xmlns="http://www.w3.org/2000/svg">
<g filter="url(#filter0_d_22_891)">
<path d="M99.0649 40.9166C54.652 14.1265 48.4243 -27.6868 -0.935148 -26.0001L554.065 -81C393.26 -39.5577 378.179 50.7991 277.278 68.9745C176.377 87.1498 131.565 60.5208 99.0649 40.9166Z" fill="url(#paint0_linear_22_891)"/>
</g>
<path d="M266.728 30.9629C268.361 31.2508 269.659 32.036 270.624 33.3186C271.614 34.6011 272.108 36.1847 272.108 38.0692C272.108 39.247 271.898 40.3202 271.477 41.2886C271.082 42.2833 270.5 43.1208 269.734 43.8014C268.991 44.5081 268.088 45.0446 267.025 45.4111C265.986 45.8037 264.823 46 263.537 46C261.657 46 260.012 45.5943 258.602 44.7829C257.192 43.9977 256.128 42.8984 255.411 41.4849L257.155 39.7967C257.674 40.9484 258.466 41.8645 259.529 42.545C260.593 43.2255 261.929 43.5658 263.537 43.5658C265.392 43.5658 266.852 43.0816 267.915 42.1131C268.979 41.1709 269.511 39.8098 269.511 38.0299C269.511 36.2239 268.954 34.7974 267.841 33.7504C266.728 32.7035 265.12 32.18 263.017 32.18H262.09V29.9028H263.092C264.996 29.9028 266.456 29.4448 267.47 28.5287C268.484 27.5864 268.991 26.3693 268.991 24.8774C268.991 24.0921 268.855 23.3985 268.583 22.7965C268.311 22.1945 267.928 21.6972 267.433 21.3046C266.963 20.8858 266.394 20.5717 265.726 20.3623C265.083 20.1529 264.378 20.0482 263.611 20.0482C262.201 20.0482 260.952 20.3885 259.863 21.069C258.8 21.7234 257.996 22.6395 257.451 23.8173L255.819 22.1683C256.116 21.4878 256.536 20.8727 257.08 20.3231C257.625 19.7472 258.243 19.263 258.936 18.8704C259.628 18.4778 260.395 18.1768 261.236 17.9674C262.077 17.7318 262.943 17.614 263.834 17.614C264.972 17.614 266.011 17.7841 266.951 18.1244C267.915 18.4647 268.744 18.9489 269.437 19.5771C270.129 20.1791 270.661 20.912 271.032 21.7757C271.428 22.6395 271.626 23.5948 271.626 24.6418C271.626 25.427 271.515 26.1861 271.292 26.919C271.069 27.6257 270.748 28.2669 270.327 28.8428C269.907 29.3924 269.387 29.8636 268.769 30.2562C268.175 30.6226 267.495 30.8582 266.728 30.9629Z" fill="url(#paint1_linear_22_891)"/>
<path d="M288.811 39.3618C289.385 39.3618 289.894 39.4948 290.338 39.7609C290.781 40.027 291.121 40.4012 291.356 40.8835C291.599 41.3658 291.721 41.9313 291.721 42.5799C291.721 43.2285 291.599 43.8023 291.356 44.3012C291.112 44.7919 290.768 45.1744 290.325 45.4488C289.889 45.7149 289.385 45.8479 288.811 45.8479C288.271 45.8479 287.806 45.7357 287.414 45.5112C287.031 45.2866 286.744 44.9623 286.553 44.5382V45.7606H285.756V36.5802H286.539V40.684C286.731 40.2515 287.022 39.9231 287.414 39.6986C287.806 39.474 288.271 39.3618 288.811 39.3618ZM288.719 45.1744C289.398 45.1744 289.929 44.9457 290.311 44.4883C290.694 44.031 290.886 43.3948 290.886 42.5799C290.886 41.7733 290.694 41.1455 290.311 40.6964C289.929 40.2474 289.393 40.0229 288.706 40.0229C288.019 40.0229 287.488 40.2474 287.114 40.6964C286.74 41.1455 286.553 41.7816 286.553 42.6049C286.553 43.4281 286.74 44.0642 287.114 44.5133C287.488 44.954 288.023 45.1744 288.719 45.1744Z" fill="black"/>
<path d="M301.561 39.5115L298.481 46.4093C298.177 47.0911 297.794 47.5901 297.333 47.9061C296.88 48.2304 296.31 48.459 295.623 48.5921L295.466 47.9934C296.093 47.852 296.563 47.6691 296.876 47.4445C297.198 47.22 297.468 46.8666 297.685 46.3843L297.959 45.7731L295.166 39.5115H296.014L298.377 44.9998L300.752 39.5115H301.561Z" fill="black"/>
<circle cx="278.17" cy="45.4312" r="0.632205" fill="black"/>
<path d="M242.225 45.684C241.113 45.684 240.126 45.4058 239.266 44.8495C238.424 44.2763 237.741 43.5598 237.218 42.7V50.8175H235.499V32.256H237.041V34.8101C237.581 33.984 238.28 33.3181 239.14 32.8123C240 32.2897 240.935 32.0284 241.947 32.0284C242.857 32.0284 243.692 32.2223 244.451 32.61C245.209 32.9809 245.867 33.4867 246.423 34.1273C246.979 34.7511 247.409 35.476 247.713 36.3021C248.033 37.1282 248.193 37.9795 248.193 38.8562C248.193 39.7834 248.05 40.6601 247.763 41.4862C247.477 42.3123 247.064 43.0372 246.524 43.661C246.002 44.2847 245.369 44.7821 244.628 45.153C243.903 45.507 243.102 45.684 242.225 45.684ZM241.745 44.1667C242.453 44.1667 243.093 44.015 243.667 43.7115C244.257 43.4081 244.754 43.0119 245.159 42.523C245.58 42.0172 245.9 41.4525 246.12 40.8287C246.339 40.188 246.448 39.5305 246.448 38.8562C246.448 38.1481 246.322 37.4738 246.069 36.8331C245.816 36.1925 245.471 35.6277 245.032 35.1388C244.594 34.6499 244.071 34.2622 243.464 33.9756C242.874 33.689 242.234 33.5457 241.542 33.5457C241.104 33.5457 240.64 33.6384 240.152 33.8238C239.68 33.9924 239.233 34.2285 238.811 34.5319C238.407 34.8185 238.053 35.1641 237.749 35.5687C237.463 35.9565 237.286 36.3695 237.218 36.8079V40.854C237.42 41.326 237.673 41.7643 237.977 42.169C238.297 42.5736 238.651 42.9276 239.039 43.2311C239.443 43.5177 239.873 43.7452 240.329 43.9138C240.784 44.0824 241.256 44.1667 241.745 44.1667Z" fill="black"/>
<path d="M213.983 45.684C213.022 45.684 212.145 45.507 211.353 45.153C210.561 44.7821 209.869 44.2847 209.279 43.661C208.706 43.0372 208.259 42.3123 207.939 41.4862C207.619 40.6601 207.458 39.7919 207.458 38.8815C207.458 37.9543 207.619 37.0776 207.939 36.2515C208.276 35.4254 208.731 34.7005 209.305 34.0767C209.895 33.453 210.586 32.9556 211.378 32.5847C212.171 32.2138 213.039 32.0284 213.983 32.0284C214.927 32.0284 215.795 32.2138 216.588 32.5847C217.397 32.9556 218.088 33.453 218.661 34.0767C219.251 34.7005 219.706 35.4254 220.027 36.2515C220.364 37.0776 220.532 37.9543 220.532 38.8815C220.532 39.7919 220.372 40.6601 220.052 41.4862C219.732 42.3123 219.277 43.0372 218.686 43.661C218.113 44.2847 217.422 44.7821 216.613 45.153C215.82 45.507 214.944 45.684 213.983 45.684ZM209.203 38.9068C209.203 39.6486 209.33 40.3398 209.583 40.9804C209.836 41.6042 210.173 42.1605 210.594 42.6494C211.033 43.1215 211.538 43.4924 212.112 43.7621C212.702 44.0318 213.325 44.1667 213.983 44.1667C214.64 44.1667 215.256 44.0318 215.829 43.7621C216.419 43.4755 216.933 43.0962 217.371 42.6241C217.81 42.1352 218.155 41.5705 218.408 40.9298C218.661 40.2892 218.788 39.598 218.788 38.8562C218.788 38.1313 218.661 37.4485 218.408 36.8079C218.155 36.1504 217.81 35.5856 217.371 35.1135C216.933 34.6246 216.419 34.2453 215.829 33.9756C215.256 33.689 214.64 33.5457 213.983 33.5457C213.325 33.5457 212.71 33.689 212.137 33.9756C211.564 34.2453 211.058 34.6246 210.62 35.1135C210.181 35.6024 209.836 36.1756 209.583 36.8331C209.33 37.4738 209.203 38.165 209.203 38.9068Z" fill="black"/>
<path d="M187.754 44.799C187.652 44.8496 187.501 44.917 187.298 45.0013C187.113 45.0856 186.894 45.1699 186.641 45.2542C186.388 45.3385 186.101 45.4143 185.781 45.4818C185.461 45.5492 185.124 45.5829 184.77 45.5829C184.399 45.5829 184.045 45.5323 183.707 45.4312C183.37 45.33 183.075 45.1783 182.822 44.976C182.569 44.7568 182.367 44.4871 182.215 44.1668C182.064 43.8465 181.988 43.4756 181.988 43.0541V33.6216H180.167V32.256H181.988V27.8053H183.707V32.256H186.742V33.6216H183.707V42.5736C183.741 43.0625 183.91 43.425 184.213 43.661C184.534 43.8802 184.896 43.9898 185.301 43.9898C185.79 43.9898 186.219 43.9139 186.59 43.7622C186.961 43.5936 187.197 43.4756 187.298 43.4081L187.754 44.799Z" fill="black"/>
<path d="M163.926 45.4313L158.565 32.2561H160.335L164.862 43.8381L169.413 32.2561H171.082L165.721 45.4313H163.926Z" fill="black"/>
<path fill-rule="evenodd" clip-rule="evenodd" d="M200.222 28.7989C200.632 29.0604 200.753 29.6048 200.491 30.0149C198.933 32.459 198.03 35.3611 198.03 38.4769C198.03 47.1819 205.087 54.2387 213.792 54.2387C221.682 54.2387 228.219 48.4406 229.373 40.873C229.446 40.3922 229.895 40.0618 230.376 40.1351C230.857 40.2084 231.187 40.6576 231.114 41.1384C229.831 49.5533 222.565 56 213.792 56C204.114 56 196.269 48.1546 196.269 38.4769C196.269 35.0158 197.273 31.7866 199.006 29.068C199.268 28.6579 199.812 28.5374 200.222 28.7989Z" fill="url(#paint2_linear_22_891)"/>
<path d="M204.274 22.2207C204.68 22.0221 205.148 22.3374 205.117 22.7883L204.321 34.3896C204.279 34.9935 203.462 35.1471 203.204 34.5994L200.724 29.3289C200.634 29.1383 200.449 29.0103 200.239 28.9937L193.938 28.4943C193.342 28.4471 193.19 27.6442 193.726 27.3817L204.274 22.2207Z" fill="url(#paint3_linear_22_891)"/>
<path d="M210.669 16.5243C210.62 16.2272 210.817 15.9423 211.11 15.8873L214.288 15.2902C214.581 15.2352 214.857 15.4311 214.906 15.7282C214.955 16.0253 214.758 16.3102 214.465 16.3652L211.287 16.9623C210.994 17.0173 210.718 16.8214 210.669 16.5243Z" fill="#5C6ABF"/>
<path d="M209.576 14.8006C209.332 14.6381 209.276 14.2972 209.454 14.055L211.319 11.3638C211.486 11.1236 211.824 11.0598 212.068 11.2224C212.304 11.3975 212.36 11.7384 212.192 11.9786L210.315 14.6612C210.149 14.9121 209.812 14.9759 209.576 14.8006Z" fill="#5C6ABF"/>
<path d="M202.324 13.0361C202.496 12.7892 202.83 12.7261 203.07 12.8953L205.679 14.7326C205.919 14.9017 205.974 15.2388 205.802 15.4857C205.63 15.7327 205.297 15.7957 205.056 15.6266L202.447 13.7892C202.207 13.6201 202.152 13.2831 202.324 13.0361Z" fill="#5C6ABF"/>
<path d="M210.217 18.5282C210.389 18.2812 210.723 18.2182 210.964 18.3874L213.573 20.2247C213.813 20.3938 213.868 20.7309 213.696 20.9778C213.524 21.2248 213.19 21.2878 212.95 21.1187L210.341 19.2813C210.101 19.1122 210.046 18.7752 210.217 18.5282Z" fill="#5C6ABF"/>
<path d="M206.947 13.9326L206.421 10.7494C206.373 10.4562 206.568 10.175 206.856 10.1207C207.145 10.0665 207.418 10.2599 207.467 10.5531L207.992 13.7363C208.04 14.0295 207.846 14.3107 207.557 14.365C207.268 14.4192 206.995 14.2258 206.947 13.9326Z" fill="#5C6ABF"/>
<path d="M212.071 11.2289L209.575 14.7948C209.33 14.6324 209.274 14.2925 209.452 14.0512L211.319 11.3693C211.487 11.1299 211.826 11.0666 212.071 11.2289Z" fill="#5C6ABF"/>
<defs>
<filter id="filter0_d_22_891" x="-4.93518" y="-81" width="563" height="164.038" filterUnits="userSpaceOnUse" color-interpolation-filters="sRGB">
<feFlood flood-opacity="0" result="BackgroundImageFix"/>
<feColorMatrix in="SourceAlpha" type="matrix" values="0 0 0 0 0 0 0 0 0 0 0 0 0 0 0 0 0 0 127 0" result="hardAlpha"/>
<feOffset dy="4"/>
<feGaussianBlur stdDeviation="2"/>
<feColorMatrix type="matrix" values="0 0 0 0 0 0 0 0 0 0 0 0 0 0 0 0 0 0 0.25 0"/>
<feBlend mode="normal" in2="BackgroundImageFix" result="effect1_dropShadow_22_891"/>
<feBlend mode="normal" in="SourceGraphic" in2="effect1_dropShadow_22_891" result="shape"/>
</filter>
<linearGradient id="paint0_linear_22_891" x1="88.5648" y1="-111" x2="317.533" y2="72.4248" gradientUnits="userSpaceOnUse">
<stop stop-color="#F6A21E"/>
<stop offset="1" stop-color="#F1CA2D"/>
</linearGradient>
<linearGradient id="paint1_linear_22_891" x1="263.759" y1="17.614" x2="263.759" y2="46" gradientUnits="userSpaceOnUse">
<stop stop-color="#56295A"/>
<stop offset="1" stop-color="#5C6ABF"/>
</linearGradient>
<linearGradient id="paint2_linear_22_891" x1="196.856" y1="36.8964" x2="226.254" y2="19.1946" gradientUnits="userSpaceOnUse">
<stop/>
<stop offset="0.807292" stop-color="#3D3D3D" stop-opacity="0"/>
</linearGradient>
<linearGradient id="paint3_linear_22_891" x1="203.128" y1="23.9322" x2="193.522" y2="38.2128" gradientUnits="userSpaceOnUse">
<stop stop-color="#5C6ABF"/>
<stop offset="1" stop-color="#56295A"/>
</linearGradient>
</defs>
</svg>

<svg width="559" height="84" fill="none" xmlns="http://www.w3.org/2000/svg"><g filter="url(#a)"><path d="M99.065 40.917C54.652 14.127 48.425-27.687-.935-26l555-55C393.26-39.558 378.179 50.8 277.278 68.975 176.377 87.15 131.565 60.52 99.065 40.917Z" fill="url(#b)"/></g><path d="M266.728 30.963c1.633.288 2.931 1.073 3.896 2.356.99 1.282 1.484 2.866 1.484 4.75 0 1.178-.21 2.251-.631 3.22a6.533 6.533 0 0 1-1.743 2.512c-.743.707-1.646 1.244-2.709 1.61-1.039.393-2.202.589-3.488.589-1.88 0-3.525-.406-4.935-1.217-1.41-.785-2.474-1.885-3.191-3.298l1.744-1.688a6.244 6.244 0 0 0 2.374 2.748c1.064.68 2.4 1.02 4.008 1.02 1.855 0 3.315-.483 4.378-1.452 1.064-.942 1.596-2.303 1.596-4.083 0-1.806-.557-3.233-1.67-4.28-1.113-1.047-2.721-1.57-4.824-1.57h-.927v-2.277h1.002c1.904 0 3.364-.458 4.378-1.374 1.014-.943 1.521-2.16 1.521-3.652 0-.785-.136-1.479-.408-2.08a3.941 3.941 0 0 0-1.15-1.492 4.59 4.59 0 0 0-1.707-.943 6.798 6.798 0 0 0-2.115-.314c-1.41 0-2.659.34-3.748 1.021-1.063.654-1.867 1.57-2.412 2.748l-1.632-1.649a6.045 6.045 0 0 1 1.261-1.845 7.905 7.905 0 0 1 1.856-1.453 9.084 9.084 0 0 1 2.3-.903 9.585 9.585 0 0 1 2.598-.353c1.138 0 2.177.17 3.117.51.964.34 1.793.825 2.486 1.453a6.025 6.025 0 0 1 1.595 2.199c.396.864.594 1.819.594 2.866a7.78 7.78 0 0 1-.334 2.277 6.597 6.597 0 0 1-.965 1.924c-.42.55-.94 1.02-1.558 1.413-.594.367-1.274.602-2.041.707Z" fill="url(#c)"/><path d="M288.811 39.362c.574 0 1.083.133 1.527.399.443.266.783.64 1.018 1.122.243.483.365 1.048.365 1.697 0 .648-.122 1.222-.365 1.721-.244.49-.588.873-1.031 1.148-.436.266-.94.399-1.514.399-.54 0-1.005-.112-1.397-.337a2.09 2.09 0 0 1-.861-.973v1.223h-.797v-9.18h.783v4.103c.192-.432.483-.76.875-.985.392-.225.857-.337 1.397-.337Zm-.092 5.812c.679 0 1.21-.228 1.592-.686.383-.457.575-1.093.575-1.908 0-.807-.192-1.434-.575-1.884-.382-.449-.918-.673-1.605-.673-.687 0-1.218.224-1.592.673-.374.45-.561 1.086-.561 1.909s.187 1.46.561 1.908c.374.441.909.661 1.605.661ZM301.561 39.511l-3.08 6.898c-.304.682-.687 1.181-1.148 1.497-.453.324-1.023.553-1.71.686l-.157-.599c.627-.141 1.097-.324 1.41-.549.322-.224.592-.577.809-1.06l.274-.61-2.793-6.263h.848L298.377 45l2.375-5.489h.809Z" fill="#000"/><circle cx="278.17" cy="45.431" r=".632" fill="#000"/><path d="M242.225 45.684c-1.112 0-2.099-.278-2.959-.834a6.935 6.935 0 0 1-2.048-2.15v8.117h-1.719V32.257h1.542v2.554a6.269 6.269 0 0 1 2.099-1.998 5.304 5.304 0 0 1 2.807-.784c.91 0 1.745.194 2.504.582.758.37 1.416.877 1.972 1.517a6.72 6.72 0 0 1 1.29 2.175c.32.826.48 1.678.48 2.554 0 .927-.143 1.804-.43 2.63a6.568 6.568 0 0 1-1.239 2.175 5.87 5.87 0 0 1-1.896 1.492c-.725.354-1.526.531-2.403.531Zm-.48-1.517c.708 0 1.348-.152 1.922-.456.59-.303 1.087-.7 1.492-1.188a5.47 5.47 0 0 0 .961-1.694c.219-.641.328-1.298.328-1.973 0-.708-.126-1.382-.379-2.023a5.574 5.574 0 0 0-1.037-1.694 4.877 4.877 0 0 0-1.568-1.163 4.338 4.338 0 0 0-1.922-.43c-.438 0-.902.092-1.39.278a5.404 5.404 0 0 0-1.341.708 4.788 4.788 0 0 0-1.062 1.037 2.79 2.79 0 0 0-.531 1.239v4.046c.202.472.455.91.759 1.315.32.405.674.759 1.062 1.062.404.287.834.514 1.29.683.455.168.927.253 1.416.253ZM213.983 45.684c-.961 0-1.838-.177-2.63-.531a6.793 6.793 0 0 1-2.074-1.492 6.825 6.825 0 0 1-1.34-2.175 7.148 7.148 0 0 1-.481-2.604c0-.928.161-1.804.481-2.63a7.188 7.188 0 0 1 1.366-2.175 6.789 6.789 0 0 1 2.073-1.492c.793-.371 1.661-.557 2.605-.557s1.812.186 2.605.557c.809.37 1.5.868 2.073 1.492a6.618 6.618 0 0 1 1.366 2.175c.337.826.505 1.702.505 2.63 0 .91-.16 1.778-.48 2.604a6.585 6.585 0 0 1-1.366 2.175 6.402 6.402 0 0 1-2.073 1.492c-.793.354-1.669.531-2.63.531Zm-4.78-6.777c0 .742.127 1.433.38 2.073.253.624.59 1.18 1.011 1.67.439.471.944.842 1.518 1.112.59.27 1.213.405 1.871.405.657 0 1.273-.135 1.846-.405a5.156 5.156 0 0 0 1.542-1.138 5.594 5.594 0 0 0 1.417-3.768c0-.725-.127-1.407-.38-2.048a5.195 5.195 0 0 0-1.037-1.694 4.641 4.641 0 0 0-1.542-1.138 4.072 4.072 0 0 0-1.846-.43c-.658 0-1.273.143-1.846.43a4.724 4.724 0 0 0-1.517 1.138 5.5 5.5 0 0 0-1.037 1.72 5.595 5.595 0 0 0-.38 2.073ZM187.754 44.799c-.102.05-.253.118-.456.202a6.737 6.737 0 0 1-.657.253c-.253.085-.54.16-.86.228-.32.067-.657.1-1.011.1-.371 0-.725-.05-1.063-.15a2.596 2.596 0 0 1-.885-.456 2.437 2.437 0 0 1-.607-.81 2.582 2.582 0 0 1-.227-1.112v-9.432h-1.821v-1.366h1.821v-4.45h1.719v4.45h3.035v1.366h-3.035v8.952c.034.489.203.851.506 1.087.321.22.683.329 1.088.329.489 0 .918-.076 1.289-.228.371-.168.607-.286.708-.354l.456 1.391ZM163.926 45.431l-5.361-13.175h1.77l4.527 11.582 4.551-11.582h1.669l-5.361 13.175h-1.795Z" fill="#000"/><path fill-rule="evenodd" clip-rule="evenodd" d="M200.222 28.799a.88.88 0 0 1 .269 1.216 15.687 15.687 0 0 0-2.461 8.462c0 8.705 7.057 15.762 15.762 15.762 7.89 0 14.427-5.798 15.581-13.366a.88.88 0 1 1 1.741.265C229.831 49.553 222.565 56 213.792 56c-9.678 0-17.523-7.845-17.523-17.523 0-3.461 1.004-6.69 2.737-9.409a.88.88 0 0 1 1.216-.27Z" fill="url(#d)"/><path d="M204.274 22.22a.587.587 0 0 1 .843.568l-.796 11.602c-.042.603-.859.757-1.117.21l-2.48-5.271a.588.588 0 0 0-.485-.335l-6.301-.5c-.596-.047-.748-.85-.212-1.112l10.548-5.161Z" fill="url(#e)"/><path d="M210.669 16.524a.556.556 0 0 1 .441-.637l3.178-.597a.527.527 0 0 1 .618.438.556.556 0 0 1-.441.637l-3.178.597a.527.527 0 0 1-.618-.438ZM209.576 14.8a.524.524 0 0 1-.122-.745l1.865-2.691a.55.55 0 0 1 .749-.142.555.555 0 0 1 .124.757l-1.877 2.682a.518.518 0 0 1-.739.14ZM202.324 13.036a.535.535 0 0 1 .746-.14l2.609 1.837c.24.169.295.506.123.753a.535.535 0 0 1-.746.14l-2.609-1.837a.542.542 0 0 1-.123-.753ZM210.217 18.528a.536.536 0 0 1 .747-.14l2.609 1.837c.24.169.295.506.123.753a.535.535 0 0 1-.746.14l-2.609-1.837a.543.543 0 0 1-.124-.753ZM206.947 13.933l-.526-3.184a.55.55 0 0 1 .435-.628.522.522 0 0 1 .611.432l.525 3.183a.55.55 0 0 1-.435.629.52.52 0 0 1-.61-.432Z" fill="#5C6ABF"/><path d="m212.071 11.229-2.496 3.566a.52.52 0 0 1-.123-.744l1.867-2.682a.554.554 0 0 1 .752-.14Z" fill="#5C6ABF"/><defs><linearGradient id="b" x1="88.565" y1="-111" x2="317.533" y2="72.425" gradientUnits="userSpaceOnUse"><stop stop-color="#F6A21E"/><stop offset="1" stop-color="#F1CA2D"/></linearGradient><linearGradient id="c" x1="263.759" y1="17.614" x2="263.759" y2="46" gradientUnits="userSpaceOnUse"><stop stop-color="#56295A"/><stop offset="1" stop-color="#5C6ABF"/></linearGradient><linearGradient id="d" x1="196.856" y1="36.896" x2="226.254" y2="19.195" gradientUnits="userSpaceOnUse"><stop/><stop offset=".807" stop-color="#3D3D3D" stop-opacity="0"/></linearGradient><linearGradient id="e" x1="203.128" y1="23.932" x2="193.522" y2="38.213" gradientUnits="userSpaceOnUse"><stop stop-color="#5C6ABF"/><stop offset="1" stop-color="#56295A"/></linearGradient><filter id="a" x="-4.935" y="-81" width="563" height="164.038" filterUnits="userSpaceOnUse" color-interpolation-filters="sRGB"><feFlood flood-opacity="0" result="BackgroundImageFix"/><feColorMatrix in="SourceAlpha" values="0 0 0 0 0 0 0 0 0 0 0 0 0 0 0 0 0 0 127 0" result="hardAlpha"/><feOffset dy="4"/><feGaussianBlur stdDeviation="2"/><feColorMatrix values="0 0 0 0 0 0 0 0 0 0 0 0 0 0 0 0 0 0 0.25 0"/><feBlend in2="BackgroundImageFix" result="effect1_dropShadow_22_891"/><feBlend in="SourceGraphic" in2="effect1_dropShadow_22_891" result="shape"/></filter></defs></svg>
